app/assets/img/ic-directions-blue.svg

<svg fill="none" height="24" viewBox="0 0 24 24" width="24" xmlns="http://www.w3.org/2000/svg"><g clip-rule="evenodd" fill="#276ce5" fill-rule="evenodd"><path d="m23.2265 11.0812-10.5-10.49996c-.455-.455-1.19-.455-1.645 0l-10.500015 10.49996c-.455001.455-.455001 1.19 0 1.645l10.500015 10.5001c.455.455 1.19.455 1.645 0l10.5-10.5001c.455-.4433.455-1.1783 0-1.645zm-2.4773.8225-8.8452-8.84513-8.84518 8.84513 8.84518 8.8452z"/><path d="m7.52023 15.08v-4.3307c0-.5954.49074-1.08264 1.09053-1.08264h5.45264v-2.70667l3.8168 3.78931-3.8168 3.7894v-2.7067h-4.36211v3.248z"/></g></svg>

<svg width="24" height="24" viewBox="0 0 24 24" fill="none" xmlns="http://www.w3.org/2000/svg">
<path fill-rule="evenodd" clip-rule="evenodd" d="M23.2265 11.0812L12.7265 0.58124C12.2715 0.12624 11.5365 0.12624 11.0815 0.58124L0.581485 11.0812C0.126484 11.5362 0.126484 12.2712 0.581485 12.7262L11.0815 23.2263C11.5365 23.6813 12.2715 23.6813 12.7265 23.2263L23.2265 12.7262C23.6815 12.2829 23.6815 11.5479 23.2265 11.0812ZM20.7492 11.9037L11.904 3.05857L3.05882 11.9037L11.904 20.7489L20.7492 11.9037Z" fill="#276CE5"/>
<path fill-rule="evenodd" clip-rule="evenodd" d="M7.52023 15.08V10.7493C7.52023 10.1539 8.01097 9.66666 8.61076 9.66666H14.0634V6.95999L17.8802 10.7493L14.0634 14.5387V11.832H9.70129V15.08H7.52023Z" fill="#276CE5"/>
</svg>
